X:1
T:The Health
T:The Health
T:aka The Merry Wassail
C:aka The Merry Wassail
L:1/8
M:4/4
K:G
V:1 treble 
V:1
 Bc | d2 d2 d3 c | B2 G4 cd | e2 e2 B3 c | g6 AB | c2 c2 B2 A2 | B4 A2 G2 | A2 B2 A3 G | G6 || %9

